X:1
T:smoke rasta
T:slightly stoopid smoke rasta
T:jared tesla
C:jared
Z:All Rights Reserved
%%score { 1 | 2 }
L:1/8
Q:1/4=80
M:4/4
K:C
V:1 treble nm="Piano" snm="Pno"
%%MIDI program 0
V:2 bass 
%%MIDI channel 1
%%MIDI program 0
L:1/4
V:1
 CGGG G/G/ G2 F/E/ | _B,2 FF FFED | F,2 CC F,F,G,/A,/B,/C/ | CGG/G/G/G/ G2 FE | %4
 F2 f/f/_e/c/ ^A2 c2 | C2 z/ A/B/c/ A/B/c/ z/ z2 | G2 d2 ^B=BG z | F2 AA c2 AF | z8 |] %9
V:2
 C,,4 | _B,,4 | F,,4 | C,,4 | z4 | z4 | z4 | z4 | z4 |] %9

